X:287
T:Golden Dolphins
C:Colin Hume, 2008
N:For the dance by Sue Carter
L:1/8
M:6/8
S:Colin Hume's website,  colinhume.com  - chords can also be printed below the stave.
Q:3/8=114
K:C
P:A
|: G | "C"c2c "/"GEG | "Dm"A2A "/"FDF | "G"G2A "G/F"Bcd | "C/E"edc "G/D"fed |\
"C"g2g "/"edc | "F"A2B "/"c2e | "Dm"f2f "/"edc |1 "G"d3- "/"d2 :|2 "G7"d3 "C"c3[K:G] |
P:B
|: "G"BAB "D7/F#"d2c | "Em"BcB "Em/D"AGF | "C"E2F "/"G2A | "B7"B3- "/"B2B |\
"Em"eBGeBG | "D"dAF "/"dAF | "Em"eBGeBG | "D"dAF "/"dAF |
"C"ecG "/"ecG | "D"fdA "/"fdA | "Em"geB "/"geB | "D7"afd "/"afd |\
"G"bab "Em"g2f | "C"ede "Am"c2B | "D7"AGA "/"dBA | "G"G3- "/"G3 :|

